packages/bezier-icons/icons/person-add.svg

<svg width="24" height="24" viewBox="0 0 24 24" fill="none" xmlns="http://www.w3.org/2000/svg">
<path fill-rule="evenodd" clip-rule="evenodd" d="M17.9984 4.00006C17.9984 3.44778 18.4461 3.00006 18.9984 3.00006C19.5506 3.00006 19.9984 3.44778 19.9984 4.00006V6.00006H21.9984C22.5506 6.00006 22.9984 6.44778 22.9984 7.00006C22.9984 7.55235 22.5506 8.00006 21.9984 8.00006H19.9984V10.0001C19.9984 10.5523 19.5506 11.0001 18.9984 11.0001C18.4461 11.0001 17.9984 10.5523 17.9984 10.0001V8.00006H15.9984C15.4461 8.00006 14.9984 7.55235 14.9984 7.00006C14.9984 6.44778 15.4461 6.00006 15.9984 6.00006H17.9984V4.00006ZM12.58 8.59976C12.58 9.48319 11.8634 10.1998 10.98 10.1998C10.0966 10.1998 9.38 9.48319 9.38 8.59976C9.38 7.71633 10.0966 6.99976 10.98 6.99976C11.8634 6.99976 12.58 7.71633 12.58 8.59976ZM10.98 12.1998C12.968 12.1998 14.58 10.5878 14.58 8.59976C14.58 6.61176 12.968 4.99976 10.98 4.99976C8.992 4.99976 7.38 6.61176 7.38 8.59976C7.38 10.5878 8.992 12.1998 10.98 12.1998ZM10.984 15.0001C13.5959 15.0001 15.8192 16.6702 16.6427 19.0001H5.32521C6.14876 16.6702 8.37198 15.0001 10.984 15.0001ZM18.461 21.0001C18.746 21.0001 18.985 20.7601 18.967 20.4761C18.697 16.3021 15.226 13.0001 10.984 13.0001C6.74195 13.0001 3.27095 16.3021 3.00095 20.4761C2.98295 20.7601 3.22195 21.0001 3.50695 21.0001H18.461Z" fill="#313234"/>
</svg>

<svg xmlns="http://www.w3.org/2000/svg" width="24" height="24" fill="none" viewBox="0 0 24 24"><path fill="#313234" fill-rule="evenodd" d="M17.998 4a1 1 0 1 1 2 0v2h2a1 1 0 0 1 0 2h-2v2a1 1 0 0 1-2 0V8h-2a1 1 0 1 1 0-2h2zM12.58 8.6a1.6 1.6 0 1 1-3.2 0 1.6 1.6 0 0 1 3.2 0m-1.6 3.6a3.6 3.6 0 1 0 0-7.2 3.6 3.6 0 0 0 0 7.2m.004 2.8a6 6 0 0 1 5.659 4H5.325c.824-2.33 3.047-4 5.659-4m7.477 6c.285 0 .524-.24.506-.524a8 8 0 0 0-15.966 0 .504.504 0 0 0 .506.524z" clip-rule="evenodd"/></svg>
